public/assets/icons/n-logo-yellow.svg

<svg fill="none" height="30" viewBox="0 0 30 30" width="30" xmlns="http://www.w3.org/2000/svg"><path clip-rule="evenodd" d="m19.6231 27.0004 2.2502-3.9271-11.4989-20.07293-2.25018 3.92708zm6.8768-11.9991-3.724 6.5009-2.2502-3.9271 1.4746-2.573-4.0623-7.08996 3.3749-1.96354zm-14.4379 7.0907-3.37493 1.9636-5.18707-9.0535 3.72409-6.5033c.99535 1.7371 1.41973 2.4774 1.65417 2.8863l.00031.0006c.25892.4516.28603.4989.59572 1.0402l-1.47467 2.5762z" fill="#fcd900" fill-rule="evenodd"/></svg>

<svg width="30" height="30" viewBox="0 0 30 30" fill="none" xmlns="http://www.w3.org/2000/svg">
<path fill-rule="evenodd" clip-rule="evenodd" d="M19.6231 27.0004L21.8733 23.0733L10.3744 3.00037L8.12422 6.92745L19.6231 27.0004ZM26.4999 15.0013L22.7759 21.5022L20.5257 17.5751L22.0003 15.0021L17.938 7.91214L21.3129 5.9486L26.4999 15.0013ZM12.062 22.092L8.68707 24.0556L3.5 15.0021L7.22409 8.4988C8.21944 10.2359 8.64382 10.9762 8.87826 11.3851L8.87857 11.3857C9.13749 11.8373 9.1646 11.8846 9.47429 12.4259L7.99962 15.0021L12.062 22.092Z" fill="#FCD900"/>
</svg>
